src/banks/lloyds.svg

<svg width="256" height="256" viewBox="0 0 256 256" fill="none" xmlns="http://www.w3.org/2000/svg">
<path d="M184.2 76.6C186.5 78.3 188.9 79.5 188.9 82.2C188.9 83 187.9 83.8 185.7 83.8C184 83.8 182.2 83.3 181.3 82.1C180.6 81.2 181.6 79.9 181 79C180.5 78.2 179.5 78.6 178.8 78.2C178 77.7 177.9 77.4 177.3 76.2C176.7 74.8 174.6 72.5 172.1 70C170 67.9 167.8 66.8 166.8 66.9C166.1 67 165.9 67 165.2 67C163.4 67 161.9 68.7 159.3 69.8C157.5 70.6 156.5 71 155.4 71.2L155 71.7L157.3 71.6C159.5 71.6 162.3 71.3 164.5 71.3C166.7 71.3 167.8 73.3 168.7 75.4C170.4 79.6 172.9 85.7 176 90.8C177.5 93.2 178.7 94.7 178.7 97.7C178.7 98.6 178.6 99.9 177.4 99.9C175.7 99.9 171.4 98.1 171.4 96.2C171.4 94.7 172.6 94.1 172.6 92.6C172.6 91.7 171.2 91.8 170.9 91C169.8 86.5 168.5 82 166 79.3C164.7 77.9 164.5 77.3 163.2 77.3C162.5 77.3 161.8 77.5 161.2 77.7C157.7 79 153 83 147.1 84.7C144.9 85.4 144.5 84.1 142.2 84.5H142.4C140.5 84.9 139.1 86 136.5 86.7C133 87.7 126.9 88.2 122 87.5C118.5 87 114 86.3 112.1 86.4C110.6 90.6 107.5 96.2 102.8 98.4C100.3 99.5 99.6 101 100.3 103.8C101.2 107.3 104.3 109.8 105.9 112.8C107.4 115.3 109.8 119.4 112.3 120.7C114.8 122 116.4 123.9 116.4 125.6C116.4 126.4 116.1 126.8 115.3 126.8H110.2C109.4 126.8 109 126.3 108.9 126C108.2 124.7 108.7 123.5 107.7 122.3C107 121.5 106.5 121.7 105.6 121C104.1 119.5 105.2 118.7 104.1 116.8C100.9 111.7 99.5 110.5 96.8 106.8C95.3 104.9 93.4 103.9 93.4 101.4C93.4 98.3 96.5 97.8 96.4 94.7C94.4 96.2 92.1 97.3 88.5 97.8C88 97.9 86.8 98.8 86.3 99.4C85.1 100.6 84.6 101.9 84.4 103.7C84 107.9 83.2 112.1 83.7 116.3C84.4 119 84.9 119.9 87.1 121.4C88.5 122.3 90.1 123.6 90.3 125.6C90.3 126.1 90.1 126.8 89.4 126.8H83.9C83.4 126.8 82.9 126.4 82.7 126.1C82.1 125 82.5 124.3 82.2 123C81.7 120.5 78.8 120.6 78.8 118C78.8 117.2 79.3 116.2 79.3 114.6C79.5 111.1 80.5 105.3 79.5 98.4C79 94.4 83.2 94.2 85.4 90.7C86.7 88.7 86.3 89.5 87.1 88.1C87.9 86.6 87.7 85.5 87.6 84.6C87.6 83.4 86.4 81 87.2 76C87.5 73.8 88.6 71.5 90.1 69.6C90.1 69.5 90.1 69.2 89.6 69.2C87.4 69.4 87.4 68.8 86 68.8C84.6 68.8 83.5 70 83.3 70.6C82.6 70.3 82.3 69.5 82.3 69.1C82.3 68.3 82.5 67.6 83.2 66.9C83.5 66.6 83.2 66.4 82.8 66.4C81.1 66.4 79.5 68.5 79.1 69.9C78.1 69.7 78 68.4 77.6 68.4C77.1 68.4 76.8 69.1 76.8 69.8C76.8 74.7 84.8 75.8 84.8 82.3C84.8 89.8 75.8 88.2 75.8 90.9C75.8 91.4 76.2 91.9 76.9 92.2C76.6 92.9 75.8 93.2 75 93.2C73 93.2 71.5 91.7 71.5 89.7C71.5 85.6 77 85.5 77 82.4C77 80.9 76.1 80.5 75.2 79.8C70 76.1 67 72.4 67 66.3C67 59.7 71.6 54.7 77.5 54.7C86.1 54.7 86.4 64.7 94.2 65.5C97.1 63.5 100.6 62.3 104 62.3C109.1 62.3 111.3 63.6 116.7 63.6C118.9 63.6 122.5 63 126.8 60C128.4 58.9 129.1 58.7 130.6 57.4C134 54.5 137.2 48.8 137.2 44.7V44.9C137.2 43.6 136.9 42.8 136.3 42.8C134.5 42.8 132.8 44.5 131 46.3C129.8 47.5 131.6 48.1 129 49.5C128.1 50 127 49.1 126 49.1C123.9 49.1 123 46.6 123 44.5C123 43.4 123.8 43.1 124.3 42.1C125.4 40 125.3 39.2 126.3 37.2C126.9 35.8 128 34.9 127.9 33.9C127.9 33.5 127.6 33.3 127.6 32.9C127.6 30.8 130.4 29.4 130.4 27.3C130.4 26.1 129.1 25.6 128.8 24.7C128.5 23.8 128.7 23.5 128.7 23.5C128.8 23.3 128.9 23.3 129.1 23.3C130.2 23.3 130.6 24.5 131.6 25.1C131.7 23.7 131.2 23.4 131.2 22.4C131.2 21.9 131.1 21 131.7 21C132.4 21 132.3 21.9 132.9 22.4C133.7 23 134.4 22.9 135.2 23.5C136.3 24.2 136.9 25.4 137.3 25.4C138.4 25.6 138.7 24.2 138.1 23.5C139.3 23.4 140.6 24.4 142.2 24.4C144.7 24.4 145.6 25.1 146.1 25.5C147.7 26.9 148 28 149.8 28C150.7 28 151.2 27.2 151.4 26.9C152.6 27.8 152.7 30.1 151.4 32.1C151.9 33.7 154.2 33.9 155.3 34.7C156.4 35.5 156.2 35.9 157 36.3C157.6 36.7 158.2 36.6 158.6 36.3C159.1 38.5 157.3 40.4 155 40.7C155.1 43.5 158 45.2 159.3 45.9C158.5 47.6 157.1 48.1 155.9 48.4C156.3 50.1 158.1 52.6 157.2 54.8C156.4 54.4 155.1 54.8 155.1 56C155.1 57.4 156.9 58.1 155 59.1C154.2 59.6 154 60.8 155.5 62C157.5 61.5 159.4 61.5 161.7 61.5C163.1 61.5 164.9 61.1 166.2 61.1C168.5 61.1 169.9 62 171.6 63.9C175.9 68.4 179.8 73.3 184.2 76.6Z" fill="#231F20"/>
<path d="M69.7012 64.3008C70.6012 64.3008 72.3012 59.2008 75.8012 59.2008C76.8012 59.2008 77.0012 59.6008 77.0012 60.0008C77.0012 60.7008 75.8012 61.3008 75.8012 62.2008C75.8012 62.4008 75.9012 62.6008 76.2012 62.6008C77.0012 62.6008 77.7012 60.7008 81.1012 60.7008C82.0012 60.7008 82.8012 60.8008 83.6012 61.0008C84.0012 61.1008 84.8012 61.5008 84.4012 60.4008C83.6012 58.0008 80.9012 55.8008 77.2012 55.8008C73.5012 55.8008 69.6012 59.1008 69.2012 63.1008C69.3012 63.8008 69.3012 64.3008 69.7012 64.3008Z" fill="#A0A1A4"/>
<path d="M133.701 32.5015C132.701 32.1015 132.501 31.6015 132.901 30.3015C133.101 29.0015 133.201 28.4015 132.601 28.3015C132.101 28.1015 131.401 28.5015 130.701 29.2015C130.101 30.0015 129.101 31.1015 128.801 31.9015C128.501 33.0015 129.801 32.8015 128.901 34.6015C127.301 37.5015 126.901 38.2015 126.101 40.2015C125.401 42.4015 124.901 42.7015 124.501 43.4015C124.001 44.0015 125.101 44.1015 126.301 43.7015C127.601 43.2015 127.701 44.8015 127.201 45.9015C126.801 46.7015 127.101 47.0015 128.201 46.1015C129.201 45.3015 127.701 44.7015 128.001 42.2015C128.401 40.0015 128.801 38.7015 130.201 36.5015C131.401 34.6015 132.401 33.2015 134.401 33.9015C135.201 34.3015 134.801 33.0015 133.701 32.5015Z" fill="#A0A1A4"/>
<path d="M176.6 98.0016C177 98.0016 177.1 97.5016 177.1 97.0016C177.1 95.9016 176.5 94.3016 175.6 93.6016C175.4 95.2016 174.6 96.3016 174.6 97.0016C174.6 97.5016 176.1 98.0016 176.6 98.0016Z" fill="#A0A1A4"/>
<path d="M186.2 82.4984C186.8 82.4984 187.7 82.2984 187.7 81.7984C187.7 80.8984 186.3 79.2984 185.1 78.8984C185.9 80.4984 185.1 82.4984 186.2 82.4984Z" fill="#A0A1A4"/>
<path d="M143.8 61.3984C152.5 65.3984 152 72.6984 152.7 70.8984C153 70.0984 154.2 66.4984 151.1 62.9984C148.7 60.1984 147.8 60.8984 148.7 58.5984C152.5 49.3984 154.9 35.4984 143.5 30.6984C142.2 30.1984 141.1 30.1984 141.1 30.3984C141.1 30.5984 142.3 30.9984 143.8 31.9984C151.4 36.9984 149 50.6984 142.1 57.2984C139.9 59.5984 141 60.0984 143.8 61.3984Z" fill="#A0A1A4"/>
<path d="M114.001 125.399C114.601 125.399 114.301 124.499 114.101 124.099C113.601 123.199 112.601 122.599 111.701 122.199C111.901 123.099 112.001 125.399 112.901 125.399H114.001Z" fill="#A0A1A4"/>
<path d="M87.6996 125.399C88.2996 125.399 87.8996 124.499 87.5996 124.099C87.0996 123.199 85.9996 122.599 85.0996 122.199C85.2996 123.099 85.4996 125.399 86.3996 125.399H87.6996Z" fill="#A0A1A4"/>
<path d="M119.601 73.1012C124.401 72.6012 125.201 71.5012 126.001 67.9012C126.401 66.2012 127.601 64.4012 128.701 63.3012C129.401 62.5012 130.101 61.9012 130.801 60.8012C131.001 60.3012 131.201 60.0012 130.801 60.1012C130.301 60.5012 128.601 61.6012 127.901 62.1012C124.501 64.5012 119.301 65.6012 117.301 65.6012C112.901 65.6012 109.101 64.3012 105.101 64.3012C93.1009 64.3012 88.6009 73.7012 89.2009 79.2012C89.3009 80.1012 89.4009 80.1012 89.7009 80.1012C90.5009 80.1012 91.3009 76.9012 94.3009 74.0012C98.7009 69.8012 103.501 67.4012 110.301 67.4012C115.201 67.4012 117.301 69.0012 117.301 69.6012C117.301 70.8012 115.201 70.9012 115.401 72.1012C115.301 72.6012 116.401 73.5012 119.601 73.1012Z" fill="#A0A1A4"/>
<path d="M139.601 170.901C143.401 165.401 146.101 160.901 148.401 154.301H155.501C152.201 162.701 148.301 169.301 142.801 176.801V188.001H136.501V176.901C131.001 169.301 127.101 162.801 123.801 154.401H130.901C133.101 161.001 135.801 165.501 139.601 170.901Z" fill="#006C32"/>
<path d="M204.699 168.1C201.599 167.1 199.799 166.6 198.699 165.8C197.499 165.1 197.199 164.2 197.199 163.3C197.199 161.9 197.999 161 199.199 160.4C200.399 159.8 201.999 159.6 203.399 159.6C205.599 159.6 208.099 160.1 210.699 161L212.799 156.1C210.199 154.8 206.699 154 203.399 154C199.999 154 196.999 154.8 194.899 156.3C192.299 158 190.999 160.5 190.999 163.5C190.999 169.3 195.899 171.5 200.699 173.1C202.699 173.8 204.799 174.3 206.199 175.1C207.599 175.9 208.399 177 208.399 178.4C208.399 180 207.399 181.1 206.399 181.6C205.199 182.3 203.299 182.6 201.399 182.6C196.899 182.6 193.699 180.9 191.399 179.3L189.199 184.4C192.099 186.6 196.899 188.2 201.699 188.2C209.099 188.2 214.699 184.3 214.699 178C214.699 172.5 210.199 169.8 204.699 168.1Z" fill="#006C32"/>
<path d="M170.101 182.101H165.501V160.201H169.501C176.501 160.201 181.001 164.001 181.001 170.901C181.001 177.501 176.901 182.101 170.101 182.101ZM169.401 154.301H159.301V188.001H170.001C179.901 188.001 187.301 181.001 187.301 170.901C187.301 161.001 180.301 154.301 169.401 154.301Z" fill="#006C32"/>
<path d="M68 188.001H86.9L88.9 182.001H74.1V154.301H68V188.001Z" fill="#006C32"/>
<path d="M42 188.001H60.9L63 182.001H48.2V154.301H42V188.001Z" fill="#006C32"/>
<path d="M107 182.6C100.2 182.6 96.3 177.6 96.3 171.2C96.3 164.8 100.2 159.8 107 159.8C113.9 159.8 117.8 165 117.8 171.3C117.7 177.5 113.8 182.6 107 182.6ZM107.1 154C96.8 154 90 161.6 90 171.2C90 180.7 96.6 188.3 107 188.3C117.3 188.3 124.1 180.6 124.1 171.1C124 161.6 117.3 154 107.1 154Z" fill="#006C32"/>
<path d="M76.4 229.598H71V219.798H76.6C81.4 219.798 83.9 221.098 83.9 224.498C83.9 228.998 79.6 229.598 76.4 229.598ZM71 206.098H75.8C80.3 206.098 82.4 207.198 82.4 210.098C82.4 212.998 80.3 214.698 76.3 214.698H71V206.098ZM82.6 216.998C86.2 215.798 88.4 213.298 88.4 209.398C88.4 203.498 83.2 201.098 78.1 201.098H65V234.698H77.2C83.5 234.698 89.9 232.098 89.9 225.098C89.9 220.398 87 217.598 82.6 216.998Z" fill="#006C32"/>
<path d="M156 201H150.1V225.3H150L135.8 201H128.1V234.7H133.9V209.6H134L148.5 234.7H156V201Z" fill="#006C32"/>
<path d="M175.5 217.2L191.1 201H183.2L169.2 216.1H169V201H163.1V234.7H169V218.4H169.2L184.1 234.7H192.4L175.5 217.2Z" fill="#006C32"/>
<path d="M107.899 227.498C110.399 227.498 112.799 227.298 114.899 226.698L117.999 234.698H124.999L110.499 201.098H105.399L90.7988 234.698H97.7988L100.899 226.698C102.999 227.298 105.399 227.498 107.899 227.498ZM107.899 222.398C106.099 222.398 104.499 222.298 102.699 221.898L107.899 208.598L113.099 221.898C111.299 222.298 109.699 222.398 107.899 222.398Z" fill="#006C32"/>
</svg>

<svg xmlns="http://www.w3.org/2000/svg" viewBox="0 0 256 256"><path fill="#231F20" d="M184.2 76.6c2.3 1.7 4.7 2.9 4.7 5.6 0 .8-1 1.6-3.2 1.6-1.7 0-3.5-.5-4.4-1.7-.7-.9.3-2.2-.3-3.1-.5-.8-1.5-.4-2.2-.8-.8-.5-.9-.8-1.5-2-.6-1.4-2.7-3.7-5.2-6.2-2.1-2.1-4.3-3.2-5.3-3.1-.7.1-.9.1-1.6.1-1.8 0-3.3 1.7-5.9 2.8-1.8.8-2.8 1.2-3.9 1.4l-.4.5 2.3-.1c2.2 0 5-.3 7.2-.3s3.3 2 4.2 4.1c1.7 4.2 4.2 10.3 7.3 15.4 1.5 2.4 2.7 3.9 2.7 6.9 0 .9-.1 2.2-1.3 2.2-1.7 0-6-1.8-6-3.7 0-1.5 1.2-2.1 1.2-3.6 0-.9-1.4-.8-1.7-1.6-1.1-4.5-2.4-9-4.9-11.7-1.3-1.4-1.5-2-2.8-2-.7 0-1.4.2-2 .4-3.5 1.3-8.2 5.3-14.1 7-2.2.7-2.6-.6-4.9-.2h.2c-1.9.4-3.3 1.5-5.9 2.2-3.5 1-9.6 1.5-14.5.8-3.5-.5-8-1.2-9.9-1.1-1.5 4.2-4.6 9.8-9.3 12-2.5 1.1-3.2 2.6-2.5 5.4.9 3.5 4 6 5.6 9 1.5 2.5 3.9 6.6 6.4 7.9s4.1 3.2 4.1 4.9c0 .8-.3 1.2-1.1 1.2h-5.1c-.8 0-1.2-.5-1.3-.8-.7-1.3-.2-2.5-1.2-3.7-.7-.8-1.2-.6-2.1-1.3-1.5-1.5-.4-2.3-1.5-4.2-3.2-5.1-4.6-6.3-7.3-10-1.5-1.9-3.4-2.9-3.4-5.4 0-3.1 3.1-3.6 3-6.7-2 1.5-4.3 2.6-7.9 3.1-.5.1-1.7 1-2.2 1.6-1.2 1.2-1.7 2.5-1.9 4.3-.4 4.2-1.2 8.4-.7 12.6.7 2.7 1.2 3.6 3.4 5.1 1.4.9 3 2.2 3.2 4.2 0 .5-.2 1.2-.9 1.2h-5.5c-.5 0-1-.4-1.2-.7-.6-1.1-.2-1.8-.5-3.1-.5-2.5-3.4-2.4-3.4-5 0-.8.5-1.8.5-3.4.2-3.5 1.2-9.3.2-16.2-.5-4 3.7-4.2 5.9-7.7 1.3-2 .9-1.2 1.7-2.6.8-1.5.6-2.6.5-3.5 0-1.2-1.2-3.6-.4-8.6.3-2.2 1.4-4.5 2.9-6.4 0-.1 0-.4-.5-.4-2.2.2-2.2-.4-3.6-.4s-2.5 1.2-2.7 1.8c-.7-.3-1-1.1-1-1.5 0-.8.2-1.5.9-2.2.3-.3 0-.5-.4-.5-1.7 0-3.3 2.1-3.7 3.5-1-.2-1.1-1.5-1.5-1.5-.5 0-.8.7-.8 1.4 0 4.9 8 6 8 12.5 0 7.5-9 5.9-9 8.6 0 .5.4 1 1.1 1.3-.3.7-1.1 1-1.9 1-2 0-3.5-1.5-3.5-3.5 0-4.1 5.5-4.2 5.5-7.3 0-1.5-.9-1.9-1.8-2.6C70 76.1 67 72.4 67 66.3c0-6.6 4.6-11.6 10.5-11.6 8.6 0 8.9 10 16.7 10.8 2.9-2 6.4-3.2 9.8-3.2 5.1 0 7.3 1.3 12.7 1.3 2.2 0 5.8-.6 10.1-3.6 1.6-1.1 2.3-1.3 3.8-2.6 3.4-2.9 6.6-8.6 6.6-12.7v.2c0-1.3-.3-2.1-.9-2.1-1.8 0-3.5 1.7-5.3 3.5-1.2 1.2.6 1.8-2 3.2-.9.5-2-.4-3-.4-2.1 0-3-2.5-3-4.6 0-1.1.8-1.4 1.3-2.4 1.1-2.1 1-2.9 2-4.9.6-1.4 1.7-2.3 1.6-3.3 0-.4-.3-.6-.3-1 0-2.1 2.8-3.5 2.8-5.6 0-1.2-1.3-1.7-1.6-2.6s-.1-1.2-.1-1.2c.1-.2.2-.2.4-.2 1.1 0 1.5 1.2 2.5 1.8.1-1.4-.4-1.7-.4-2.7 0-.5-.1-1.4.5-1.4.7 0 .6.9 1.2 1.4.8.6 1.5.5 2.3 1.1 1.1.7 1.7 1.9 2.1 1.9 1.1.2 1.4-1.2.8-1.9 1.2-.1 2.5.9 4.1.9 2.5 0 3.4.7 3.9 1.1 1.6 1.4 1.9 2.5 3.7 2.5.9 0 1.4-.8 1.6-1.1 1.2.9 1.3 3.2 0 5.2.5 1.6 2.8 1.8 3.9 2.6s.9 1.2 1.7 1.6c.6.4 1.2.3 1.6 0 .5 2.2-1.3 4.1-3.6 4.4.1 2.8 3 4.5 4.3 5.2-.8 1.7-2.2 2.2-3.4 2.5.4 1.7 2.2 4.2 1.3 6.4-.8-.4-2.1 0-2.1 1.2 0 1.4 1.8 2.1-.1 3.1-.8.5-1 1.7.5 2.9 2-.5 3.9-.5 6.2-.5 1.4 0 3.2-.4 4.5-.4 2.3 0 3.7.9 5.4 2.8 4.3 4.5 8.2 9.4 12.6 12.7"/><path fill="#A0A1A4" d="M69.701 64.3c.9 0 2.6-5.1 6.1-5.1 1 0 1.2.4 1.2.8 0 .7-1.2 1.3-1.2 2.2 0 .2.1.4.4.4.8 0 1.5-1.9 4.9-1.9.9 0 1.7.1 2.5.3.4.1 1.2.5.8-.6-.8-2.4-3.5-4.6-7.2-4.6s-7.6 3.3-8 7.3c.1.7.1 1.2.5 1.2m64-31.798c-1-.4-1.2-.9-.8-2.2.2-1.3.3-1.9-.3-2-.5-.2-1.2.2-1.9.9-.6.8-1.6 1.9-1.9 2.7-.3 1.1 1 .9.1 2.7-1.6 2.9-2 3.6-2.8 5.6-.7 2.2-1.2 2.5-1.6 3.2-.5.6.6.7 1.8.3 1.3-.5 1.4 1.1.9 2.2-.4.8-.1 1.1 1 .2 1-.8-.5-1.4-.2-3.9.4-2.2.8-3.5 2.2-5.7 1.2-1.9 2.2-3.3 4.2-2.6.8.4.4-.9-.7-1.4m42.899 65.5c.4 0 .5-.5.5-1 0-1.1-.6-2.7-1.5-3.4-.2 1.6-1 2.7-1 3.4 0 .5 1.5 1 2 1m9.6-15.504c.6 0 1.5-.2 1.5-.7 0-.9-1.4-2.5-2.6-2.9.8 1.6 0 3.6 1.1 3.6m-42.4-21.1c8.7 4 8.2 11.3 8.9 9.5.3-.8 1.5-4.4-1.6-7.9-2.4-2.8-3.3-2.1-2.4-4.4 3.8-9.2 6.2-23.1-5.2-27.9-1.3-.5-2.4-.5-2.4-.3s1.2.6 2.7 1.6c7.6 5 5.2 18.7-1.7 25.3-2.2 2.3-1.1 2.8 1.7 4.1m-29.799 64.001c.6 0 .3-.9.1-1.3-.5-.9-1.5-1.5-2.4-1.9.2.9.3 3.2 1.2 3.2zm-26.301 0c.6 0 .2-.9-.1-1.3-.5-.9-1.6-1.5-2.5-1.9.2.9.4 3.2 1.3 3.2zm31.901-52.298c4.8-.5 5.6-1.6 6.4-5.2.4-1.7 1.6-3.5 2.7-4.6.7-.8 1.4-1.4 2.1-2.5.2-.5.4-.8 0-.7-.5.4-2.2 1.5-2.9 2-3.4 2.4-8.6 3.5-10.6 3.5-4.4 0-8.2-1.3-12.2-1.3-12 0-16.5 9.4-15.9 14.9.1.9.2.9.5.9.8 0 1.6-3.2 4.6-6.1 4.4-4.2 9.2-6.6 16-6.6 4.9 0 7 1.6 7 2.2 0 1.2-2.1 1.3-1.9 2.5-.1.5 1 1.4 4.2 1"/><path fill="#006C32" d="M139.601 170.901c3.8-5.5 6.5-10 8.8-16.6h7.1c-3.3 8.4-7.2 15-12.7 22.5v11.2h-6.3v-11.1c-5.5-7.6-9.4-14.1-12.7-22.5h7.1c2.2 6.6 4.9 11.1 8.7 16.5m65.098-2.801c-3.1-1-4.9-1.5-6-2.3-1.2-.7-1.5-1.6-1.5-2.5 0-1.4.8-2.3 2-2.9s2.8-.8 4.2-.8c2.2 0 4.7.5 7.3 1.4l2.1-4.9c-2.6-1.3-6.1-2.1-9.4-2.1-3.4 0-6.4.8-8.5 2.3-2.6 1.7-3.9 4.2-3.9 7.2 0 5.8 4.9 8 9.7 9.6 2 .7 4.1 1.2 5.5 2s2.2 1.9 2.2 3.3c0 1.6-1 2.7-2 3.2-1.2.7-3.1 1-5 1-4.5 0-7.7-1.7-10-3.3l-2.2 5.1c2.9 2.2 7.7 3.8 12.5 3.8 7.4 0 13-3.9 13-10.2 0-5.5-4.5-8.2-10-9.9m-34.598 14.001h-4.6v-21.9h4c7 0 11.5 3.8 11.5 10.7 0 6.6-4.1 11.2-10.9 11.2m-.7-27.8h-10.1v33.7h10.7c9.9 0 17.3-7 17.3-17.1 0-9.9-7-16.6-17.9-16.6M68 188.001h18.9l2-6H74.1v-27.7H68zm-26 0h18.9l2.1-6H48.2v-27.7H42zm65-5.401c-6.8 0-10.7-5-10.7-11.4s3.9-11.4 10.7-11.4c6.9 0 10.8 5.2 10.8 11.5-.1 6.2-4 11.3-10.8 11.3m.1-28.6c-10.3 0-17.1 7.6-17.1 17.2 0 9.5 6.6 17.1 17 17.1 10.3 0 17.1-7.7 17.1-17.2-.1-9.5-6.8-17.1-17-17.1m-30.7 75.598H71v-9.8h5.6c4.8 0 7.3 1.3 7.3 4.7 0 4.5-4.3 5.1-7.5 5.1m-5.4-23.5h4.8c4.5 0 6.6 1.1 6.6 4s-2.1 4.6-6.1 4.6H71zm11.6 10.9c3.6-1.2 5.8-3.7 5.8-7.6 0-5.9-5.2-8.3-10.3-8.3H65v33.6h12.2c6.3 0 12.7-2.6 12.7-9.6 0-4.7-2.9-7.5-7.3-8.1M156 201h-5.9v24.3h-.1L135.8 201h-7.7v33.7h5.8v-25.1h.1l14.5 25.1h7.5zm19.5 16.2 15.6-16.2h-7.9l-14 15.1h-.2V201h-5.9v33.7h5.9v-16.3h.2l14.9 16.3h8.3zm-67.601 10.298c2.5 0 4.9-.2 7-.8l3.1 8h7l-14.5-33.6h-5.1l-14.6 33.6h7l3.1-8c2.1.6 4.5.8 7 .8m0-5.1c-1.8 0-3.4-.1-5.2-.5l5.2-13.3 5.2 13.3c-1.8.4-3.4.5-5.2.5"/></svg>
